!!!ONB: MCCC : IJH0462_01 : Extracted Monophonic Melody
!!!COM: Haydn, Joseph
!!!OPR: String Quartet in G major
!!!OMV: 1
!!!SCT: Hob.III:41 ; Op.33 No.5
!!!ODT: 1781///
**kern
*thru
*k[f#]
*G:
*clefG
*M2/4
4.d
16e
16f#
=1
4g
8r
8b
=2
4.b
8cc
=3
8dd
8dd
8dd
8a
=4
4.a
8b
=5
8cc
8cc
8cc
8g
=6
2g
=7
4.a
16b
16cc
=8
4.d
16e
16f#
=9
4g
8r
8gg
=10
8ff#
16ee
16dd
8cc
16b
16a
=11
4g
8r
16bb
16gg
=12
8ff#
16ee
16dd
8cc
16b
16a
=13
4g
8r
16ddd
16bb
=14
8aa
16gg
16ff#
8gg
16ddd
16bb
=15
8aa
16gg
16ff#
8gg
8aa
=16
4.bb
16ccc#
16ddd
=17
4.eee
16fff#
16ggg
=18
4.aa
16bb
16ccc#
=19
4ddd
8eee
16ddd
16eee
=20
4ddd
8eee
16ddd
16eee
=21
4ddd
4ddd
=22
2ddd
=23
4ccc#
8ccc
8bb
=24
4.bb
8ccc
=25
8ddd
8ddd
8ddd
8aa
=26
4.aa
8bb
=27
8ccc
8ccc
8ccc
8gg
=28
4.gg
8gg#
=29
4.aa
16bb
16ccc
=30
4.dd
16ee
16ff#
=31
4gg
8r
16bb
16gg
=32
8ff#
16ee
16dd
8cc
16b
16a
=33
4g
8r
16bb
16gg
=34
8ff#
16ee
16dd#
8dd#
16cc#
16b
=35
4ee
8r
16bb
16gg
=36
16ff#
16ee
16gg
16ee
8cc#
16b
16a
=37
4dd
8r
16ddd
16aa
=38
8gg
16ff#
16gg
8ff#
16aa
16ff#
=39
8ee
16dd
16ee
8dd
16ddd
16aa
=40
8gg
16ff#
16gg
8ff#
16aa
16ff#
=41
8ee
16dd
16ee
8dd
16aa
16ff#
=42
8bb
8bb
8gg
16ff#
16gg
=43
8ee
8ee
8dd
16cc#
16dd
=44
16cc#
16a
16b
16cc#
16dd
16ee
16ff#
16gg#
=45
8aa
8ccc#
8eee
8ccc#
=46
8aa
8r
8aa
8r
=47
8aa
4r
8aa
=48
4.aa
8gg#
=49
8aa
8gg#
8aa
8gg#
=50
8aa
8ddd
8fff#
8eee
=51
8ddd
8ccc#
8bb
8aa
=52
4.gg
8ff#
=53
8gg
8ff#
8gg
8ff#
=54
8gg
8ccc#
8eee
8ddd
=55
8ccc#
8bb
8aa
8gg
=56
8ff#
8aa
4aa[
=57
4.aa]
8gg
=58
8ff#
8ff#
4ff#[
=59
4.ff#]
8ee
=60
8dd
4bb
8aa[
=61
8aa]
4gg#
8gg[
=62
8gg]
4ff#
8ee[
=63
8ee]
4dd
8cc#
=64
4.ff#
8gg
=65
8aa
8aa
8aa
8dd
=66
4.dd
8ee
=67
8ff#
8ff#
8ff#
8b
=68
4.b
8cc#
=69
8dd
8dd
8dd
8g
=70
4.g
8a
=71
8b
8b
8b
8g
=72
8ee
8ee
8ee
8b
=73
8gg
8gg
8gg
8ee
=74
16bb
16ff#
16bb
16ff#
16bb
16ff#
16bb
16ff#
=75
16bb
16ff#
16bb
16ff#
16bb
16ff#
16bb
16ff#
=76
2gg
=77
2bb-
=78
2aa[
=79
4aa]
4gg
=80
8ff#
16ee
16ff#
8gg
8ee
=81
4dd
4cc#
=82
8dd
8ff#
8aa
8ddd
=83
8fff#
8eee
8ddd
8ccc#
=84
8r
8bb
8r
8ddd
=85
8r
8bb
8r
8gg
=86
8ff#
4aa
16ff#
16dd
=87
2ee
=88
4dd
8r
8dd
=89
8dd
4r
8dd
=90
8dd
4r
8dd
=91
8dd
4r
8cc#
=92
8cc#
4r
8cc
=93
8cc
4.r
=94
4.r
8b-
=95
4.b-
8cc
=96
8dd
8dd
8dd
8a
=97
4.a
8b-
=98
8cc
8cc
8cc
8g
=99
2g
=100
4.a-
16b-
16cc
=101
4.d
16e
16f#
=102
4g
8r
8gg
=103
8ff#
16ee
16dd
8cc
16b
16a
=104
4g
8r
8g
=105
8f#
16e
16d
8c
16B
16A
=106
2G[
=107
2G]
=108
2A-
=109
2B
=110
4.c
16d
16e
=111
2f
=112
4e
8r
8ccc
=113
8bb
16aa
16gg
8ff
16ee
16dd
=114
8cc
4gg
8gg[
=115
8gg]
4gg
8gg[
=116
8gg]
4gg
8gg[
=117
8gg]
4gg
8gg[
=118
8gg]
4gg
8ccc
=119
8bb
16aa
16gg
8ccc
8ccc
=120
8bb
16aa
16gg
8ccc
8ccc
=121
8eee
8eee
4eee[
=122
8eee]
8ddd
8ccc
8bb
=123
8aa
8aa
4aa[
=124
8aa]
8gg
8ff#
8ee
=125
8bb
8bb
8gg
16ff#
16ee
=126
8bb
8bb
8gg
16ff#
16ee
=127
8ff#
8ff#
8gg
8gg
=128
8ff#
8ff#
8gg
8gg
=129
8ff#
8r
8bb
8r
=130
8bb
4r
8bb
=131
4.bb
8aa#
=132
8bb
8aa#
8bb
8aa#
=133
8bb
8eee
8ggg
8fff#
=134
8eee
8ddd
8ccc
8bb
=135
4.aa
8gg#
=136
8aa
8gg#
8aa
8gg#
=137
8aa
8ddd#
8fff#
8eee
=138
8ddd#
8ccc
8bb
8aa
=139
2gg#
=140
2gg#
=141
2gg#[
=142
2gg#]
=143
4.gg#
8aa
=144
8bb
8bb
8bb
8aa
=145
4.gg#
8aa
=146
8bb
8bb
8bb
8aa
=147
8gg#
8aa
8gg#
8aa
=148
8gg#
8aa
8bb
8ccc
=149
8ddd
8ddd
8ddd
8ddd
=150
4ddd
4r
=151
2ccc
=152
16bb-
16gg
16bb-
16gg
16bb-
16gg
16bb-
16gg
=153
2aa
=154
16gg
16ee
16gg
16ee
16gg
16ee
16gg
16ee
=155
2ff[
=156
2ff]
=157
2ee
=158
2gg
=159
2bb
=160
2dd#
=161
16ccc
16aa
16ccc
16aa
16ccc
16aa
16ccc
16aa
=162
16ccc
16aa
16ccc
16aa
16ccc
16aa
16ccc
16aa
=163
8bb
8bb
8r
8aa
=164
8r
8gg
8r
8ff#
=165
8ccc
4ccc
8ccc[
=166
8ccc]
4ccc
8ccc
=167
8bb
8bb
8r
8aa
=168
8r
8gg
8r
8ff#
=169
4ee
8r
8ee
=170
8ee
4r
8ee
=171
8ee
4r
8ff
=172
8ff
4.r
=173
2r
=174
4.r
8ff
=175
8ff
4r
8ee
=176
8ee
4r
8ee-
=177
8ee-
4r
8dd
=178
8dd
4.r
=179
2r
=180
2r
=181
4.d
16e
16f#
=182
4g
8r
8b
=183
4.b
8cc
=184
8dd
8dd
8dd
8a
=185
4.a
8b
=186
8cc
8cc
8cc
8g
=187
2g
=188
4.a
16b
16cc
=189
4.d
16e
16f#
=190
4g
8r
8gg
=191
8ff#
16ee
16dd
8cc
16b
16a
=192
4g
8r
16bb
16gg
=193
8ff#
16ee
16dd
8cc
16b
16a
=194
4g
8r
16ddd
16bb
=195
8aa
16gg
16ff#
8gg
16ddd
16bb
=196
8aa
16gg
16ff#
8gg
8aa
=197
4.bb
16ccc#
16ddd
=198
4.eee
16fff#
16ggg
=199
4.aa
16bb
16ccc#
=200
4ddd
8eee
16ddd
16eee
=201
4ddd
8eee
16ddd
16eee
=202
8ddd
8r
8ddd
8r
=203
2ddd
=204
4ccc#
8ccc
8bb
=205
4.bb
8ccc
=206
8ddd
8ddd
8ddd
8r
=207
8r
16bb
16ccc
8ddd
8r
=208
8r
16bb
16ccc
8ddd
8r
=209
8r
16gg
16aa
8bb
8r
=210
8r
16ee
16ff#
8gg
8r
=211
8r
16cc
16dd
8ee
8r
=212
8r
16a
16b
8cc
8cc
=213
2cc[
=214
4.cc]
16a
16b-
=215
8cc
16cc
16dd
8ee-
8ee-
=216
8ee-
8dd
4aa[
=217
4.aa]
8ee-
=218
8ee-
8dd
4bb-[
=219
4.bb-]
8dd
=220
8ff
8ee-
4bb-[
=221
4.bb-]
8ee-
=222
8ee-
8dd
4ccc[
=223
4.ccc]
8dd
=224
8ff
8ee-
4bb-[
=225
8bb-]
8aa-
8gg
8ff
=226
8ff
8ee-
4ee-[
=227
4ee-]
4dd[
=228
8dd]
8cc#
4cc#[
=229
4cc#]
8.cc#
16dd
=230
2dd
=231
2dd
=232
2dd
=233
2dd
=234
2dd
=235
2dd
=236
2dd
=237
2dd[
=238
4.dd]
8cc#
=239
8dd
8cc#
8dd
8cc#
=240
8dd
8gg
8bb
8aa
=241
8gg
8ff#
8ee
8dd
=242
4.cc
8b
=243
8cc
8b
8cc
8b
=244
8cc
8ff#
8aa
8gg
=245
8ff#
8ee
8dd
8cc
=246
8b
8ddd
4ddd[
=247
4.ddd]
8ccc
=248
8bb
8bb
4bb[
=249
4.bb]
8aa
=250
8gg
4eee
8ddd[
=251
8ddd]
4ccc#
8ccc[
=252
8ccc]
4bb
8aa[
=253
8aa]
4gg
8ff#[
=254
8ff#]
4ee
8ff[
=255
8ff]
4ee
8ee-[
=256
8ee-]
4dd
8cc[
=257
8cc]
4b
8a
=258
4.bb
8ccc
=259
8ddd
8ddd
8ddd
8gg
=260
4.gg
8aa
=261
8bb
8bb
8bb
8ee
=262
4.ee
8ff#
=263
8gg
8gg
8gg
8cc
=264
4.cc
8dd
=265
8ee
8ee
8ee
8a
=266
8aa
8aa
8aa
8ee
=267
8ccc
8ccc
8ccc
8aa
=268
8eee
8eee
8ccc
8aa
=269
2gg
=270
4.ff#
8gg
=271
4.gg
8aa-
=272
8bb-
8bb-
8bb-
8ee-
=273
4.ee-
8ff
=274
8gg
8gg
8gg
8b-
=275
4.b-
16cc
16dd
=276
8ee-
8b-
8g
8e-
=277
2d
=278
2c#
=279
2c[
=280
4.c]
8B
=281
4.B
8c
=282
8d
8d
8d
8A
=283
4.A
8B
=284
8c
8c
8c
8B
=285
8e
8e
8e
8d
=286
8g
8g
8g
8f#
=287
8cc
8r
8b
8r
=288
8a
8r
8f#
8r
=289
8g
16b
16cc
8dd
16ee
16ff#
=290
8gg
16gg
16aa
8bb
16bb
16ccc
=291
8ddd
8ddd
8ddd
8ddd
=292
8ddd
8ddd
8ddd
8ddd
=293
8ccc
8ccc
8ccc
8ccc
=294
8ccc
8ccc
8ccc
8ccc
=295
8bb
8bb
8bb
8bb
=296
8bb
8bb
8bb
8bb
=297
8aa
8aa
8aa
8aa
=298
8aa
8aa
8aa
8aa
=299
4gg
4r
=300
4.d
16e
16f#
=301
4g
4r
=302
4.d
16e
16f#
=303
4g
4r
=304
2r
==
*-
